balaji-portofolio/src/assets/moon.svg

<?xml version="1.0" encoding="iso-8859-1"?>
<!-- Generator: Adobe Illustrator 19.0.0, SVG Export Plug-In . SVG Version: 6.00 Build 0)  -->
<svg version="1.1" id="Layer_1" xmlns="http://www.w3.org/2000/svg" xmlns:xlink="http://www.w3.org/1999/xlink" x="0px" y="0px"
	 viewBox="0 0 512 512" style="enable-background:new 0 0 512 512;" xml:space="preserve">
<g>
	<g>
		<g>
			<path
			 fill="white"
			 	d="M503.686,326.871c-7.932-6.33-19.109-6.452-27.18-0.29c-35.597,27.194-78.143,41.567-123.041,41.567
				c-12.218,0-24.465-1.1-36.401-3.268c-4.761-0.868-9.317,2.291-10.181,7.051c-0.865,4.758,2.292,9.317,7.051,10.181
				c12.966,2.356,26.266,3.55,39.53,3.55c48.774,0,94.997-15.617,133.671-45.162c1.67-1.276,3.982-1.25,5.624,0.059
				c1.641,1.31,2.176,3.559,1.303,5.469c-19.069,41.693-49.47,77.047-87.915,102.238c-39.456,25.851-85.352,39.517-132.724,39.517
				c-133.718,0-242.506-108.788-242.506-242.506c0-47.375,13.665-93.27,39.517-132.723c25.191-38.447,60.544-68.847,102.242-87.917
				c1.908-0.874,4.152-0.337,5.462,1.305c1.309,1.641,1.336,3.953,0.061,5.621c-29.546,38.68-45.163,84.903-45.163,133.673
				c0,47.23,14.783,92.296,42.752,130.328c27.397,37.254,64.95,64.578,108.6,79.017c4.595,1.516,9.545-0.974,11.065-5.564
				c1.518-4.592-0.973-9.547-5.564-11.065c-83.343-27.567-139.338-105.013-139.338-192.715c0-44.895,14.374-87.442,41.567-123.042
				c6.163-8.068,6.042-19.244-0.292-27.179c-6.337-7.94-17.215-10.527-26.439-6.304c-44.699,20.442-82.6,53.032-109.603,94.242
				c-27.727,42.313-42.382,91.528-42.382,142.323c0,143.376,116.646,260.021,260.021,260.021
				c50.792,0,100.007-14.655,142.324-42.382c41.209-27.003,73.8-64.903,94.245-109.603
				C514.213,344.081,511.622,333.208,503.686,326.871z"/>
			<path d="M251.454,164.085c20.691,0,37.526,16.834,37.526,37.525c0,4.836,3.921,8.757,8.757,8.757s8.757-3.921,8.757-8.757
				c0-20.691,16.834-37.525,37.525-37.525c4.836,0,8.757-3.921,8.757-8.757c0-4.836-3.921-8.757-8.757-8.757
				c-20.691,0-37.525-16.835-37.525-37.526c0-4.836-3.921-8.757-8.757-8.757s-8.757,3.921-8.757,8.757
				c0,20.691-16.835,37.526-37.526,37.526c-4.836,0-8.757,3.921-8.757,8.757C242.697,160.164,246.618,164.085,251.454,164.085z
				 M297.737,138.804c4.267,6.614,9.909,12.256,16.523,16.524c-6.614,4.267-12.255,9.909-16.523,16.523
				c-4.267-6.614-9.91-12.255-16.524-16.523C287.827,151.061,293.47,145.418,297.737,138.804z"/>
			<path d="M375.404,276.696c15.022,0,27.244-12.221,27.244-27.242c0-15.022-12.222-27.244-27.244-27.244
				s-27.243,12.222-27.243,27.244C348.163,264.475,360.383,276.696,375.404,276.696z M375.404,239.726
				c5.364,0,9.729,4.364,9.729,9.729c0,5.363-4.364,9.727-9.729,9.727s-9.728-4.363-9.728-9.727
				C365.677,244.09,370.04,239.726,375.404,239.726z"/>
			<path d="M40.451,436.768c-15.022,0-27.243,12.221-27.243,27.243c0,15.022,12.221,27.244,27.243,27.244
				c15.022,0,27.243-12.222,27.243-27.244C67.694,448.989,55.473,436.768,40.451,436.768z M40.451,473.739
				c-5.364,0-9.728-4.364-9.728-9.729c0-5.365,4.364-9.727,9.728-9.727s9.728,4.363,9.728,9.728
				C50.179,469.375,45.816,473.739,40.451,473.739z"/>
			<circle cx="297.736" cy="260.44" r="10.979"/>
			<circle cx="10.979" cy="392.27" r="10.979"/>
			<circle cx="368.144" cy="90.735" r="10.979"/>
		</g>
	</g>
</g>
<g>
</g>
<g>
</g>
<g>
</g>
<g>
</g>
<g>
</g>
<g>
</g>
<g>
</g>
<g>
</g>
<g>
</g>
<g>
</g>
<g>
</g>
<g>
</g>
<g>
</g>
<g>
</g>
<g>
</g>
</svg>

<svg width="512" height="512" viewBox="0 0 512 512" fill="none" xmlns="http://www.w3.org/2000/svg">
<path d="M503.686 326.871C495.754 320.541 484.577 320.419 476.506 326.581C440.909 353.775 398.363 368.148 353.465 368.148C341.247 368.148 329 367.048 317.064 364.88C312.303 364.012 307.747 367.171 306.883 371.931C306.018 376.689 309.175 381.248 313.934 382.112C326.9 384.468 340.2 385.662 353.464 385.662C402.238 385.662 448.461 370.045 487.135 340.5C488.805 339.224 491.117 339.25 492.759 340.559C494.4 341.869 494.935 344.118 494.062 346.028C474.993 387.721 444.592 423.075 406.147 448.266C366.691 474.117 320.795 487.783 273.423 487.783C139.705 487.783 30.917 378.995 30.917 245.277C30.917 197.902 44.582 152.007 70.434 112.554C95.625 74.107 130.978 43.707 172.676 24.637C174.584 23.763 176.828 24.3 178.138 25.942C179.447 27.583 179.474 29.895 178.199 31.563C148.653 70.243 133.036 116.466 133.036 165.236C133.036 212.466 147.819 257.532 175.788 295.564C203.185 332.818 240.738 360.142 284.388 374.581C288.983 376.097 293.933 373.607 295.453 369.017C296.971 364.425 294.48 359.47 289.889 357.952C206.546 330.385 150.551 252.939 150.551 165.237C150.551 120.342 164.925 77.795 192.118 42.195C198.281 34.127 198.16 22.951 191.826 15.016C185.489 7.07602 174.611 4.48902 165.387 8.71202C120.688 29.154 82.787 61.744 55.784 102.954C28.057 145.267 13.402 194.482 13.402 245.277C13.402 388.653 130.048 505.298 273.423 505.298C324.215 505.298 373.43 490.643 415.747 462.916C456.956 435.913 489.547 398.013 509.992 353.313C514.213 344.081 511.622 333.208 503.686 326.871Z" fill="black"/>
<path d="M251.454 164.085C272.145 164.085 288.98 180.919 288.98 201.61C288.98 206.446 292.901 210.367 297.737 210.367C302.573 210.367 306.494 206.446 306.494 201.61C306.494 180.919 323.328 164.085 344.019 164.085C348.855 164.085 352.776 160.164 352.776 155.328C352.776 150.492 348.855 146.571 344.019 146.571C323.328 146.571 306.494 129.736 306.494 109.045C306.494 104.209 302.573 100.288 297.737 100.288C292.901 100.288 288.98 104.209 288.98 109.045C288.98 129.736 272.145 146.571 251.454 146.571C246.618 146.571 242.697 150.492 242.697 155.328C242.697 160.164 246.618 164.085 251.454 164.085ZM297.737 138.804C302.004 145.418 307.646 151.06 314.26 155.328C307.646 159.595 302.005 165.237 297.737 171.851C293.47 165.237 287.827 159.596 281.213 155.328C287.827 151.061 293.47 145.418 297.737 138.804Z" fill="black"/>
<path d="M375.404 276.696C390.426 276.696 402.648 264.475 402.648 249.454C402.648 234.432 390.426 222.21 375.404 222.21C360.382 222.21 348.161 234.432 348.161 249.454C348.163 264.475 360.383 276.696 375.404 276.696ZM375.404 239.726C380.768 239.726 385.133 244.09 385.133 249.455C385.133 254.818 380.769 259.182 375.404 259.182C370.039 259.182 365.676 254.819 365.676 249.455C365.677 244.09 370.04 239.726 375.404 239.726Z" fill="black"/>
<path d="M40.451 436.768C25.429 436.768 13.208 448.989 13.208 464.011C13.208 479.033 25.429 491.255 40.451 491.255C55.473 491.255 67.694 479.033 67.694 464.011C67.694 448.989 55.473 436.768 40.451 436.768ZM40.451 473.739C35.087 473.739 30.723 469.375 30.723 464.01C30.723 458.645 35.087 454.283 40.451 454.283C45.815 454.283 50.179 458.646 50.179 464.011C50.179 469.375 45.816 473.739 40.451 473.739Z" fill="black"/>
<path d="M297.736 271.419C303.799 271.419 308.715 266.504 308.715 260.44C308.715 254.377 303.799 249.461 297.736 249.461C291.672 249.461 286.757 254.377 286.757 260.44C286.757 266.504 291.672 271.419 297.736 271.419Z" fill="black"/>
<path d="M10.979 403.249C17.0425 403.249 21.958 398.334 21.958 392.27C21.958 386.206 17.0425 381.291 10.979 381.291C4.91547 381.291 0 386.206 0 392.27C0 398.334 4.91547 403.249 10.979 403.249Z" fill="black"/>
<path d="M368.144 101.714C374.208 101.714 379.123 96.7986 379.123 90.735C379.123 84.6715 374.208 79.756 368.144 79.756C362.081 79.756 357.165 84.6715 357.165 90.735C357.165 96.7986 362.081 101.714 368.144 101.714Z" fill="black"/>
</svg>
